svg/furkot/icomoon/facebook.svg

<svg viewBox="0 0 512 512" xmlns="http://www.w3.org/2000/svg"><path d="m426.672 0h-341.352c-47.128 0-85.32 38.208-85.32 85.344v341.312c0 47.136 38.2 85.344 85.32 85.344h170.672v-224h-64v-64h64v-48c0-44.184 35.816-80 80-80h80v64h-80c-8.84 0-16 7.16-16 16v48h88l-16 64h-72v224h106.672c47.128 0 85.328-38.208 85.328-85.344v-341.312c0-47.136-38.2-85.344-85.328-85.344z"/></svg>

<svg xmlns="http://www.w3.org/2000/svg" viewBox="0 0 512 512"><path d="M426.672 0H85.32C38.192 0 0 38.208 0 85.344V426.656C0 473.792 38.2 512 85.32 512H255.992V288H191.992V224H255.992V176C255.992 131.816 291.808 96 335.992 96H415.992V160H335.992C327.152 160 319.992 167.16 319.992 176V224H407.992L391.992 288H319.992V512H426.664C473.792 512 511.992 473.792 511.992 426.656V85.344C511.992 38.208 473.792 0 426.664 0Z"/></svg>
